src/assets/images/cloud_data.svg

<svg fill="none" height="189" viewBox="0 0 188 189" width="188" xmlns="http://www.w3.org/2000/svg"><path d="m39.5854 161.522h108.7776c3.519 0 6.398 2.879 6.398 6.399v12.797c0 3.519-2.879 6.399-6.398 6.399h-108.7776c-3.5192 0-6.3986-2.88-6.3986-6.399v-12.797c0-3.52 2.8794-6.399 6.3986-6.399z" fill="#06aae9"/><path d="m139.445 178.358c2.208 0 3.999-1.79 3.999-3.999 0-2.208-1.791-3.999-3.999-3.999-2.209 0-4 1.791-4 3.999 0 2.209 1.791 3.999 4 3.999z" fill="#000"/><path d="m39.5854 84.7378h108.7776c3.519 0 6.398 2.8794 6.398 6.3987v12.7975c0 3.519-2.879 6.398-6.398 6.398h-108.7776c-3.5192 0-6.3986-2.879-6.3986-6.398v-12.7975c0-3.5193 2.8794-6.3987 6.3986-6.3987z" fill="#06aae9"/><g fill="#000"><path d="m138.605 101.774c2.209 0 3.999-1.79 3.999-3.9987s-1.79-3.9992-3.999-3.9992-3.999 1.7905-3.999 3.9992 1.79 3.9987 3.999 3.9987z"/><path d="m20.7494 88.8571c-11.11767 0-20.115794-9.0381-20.115794-20.1158s9.038114-20.1158 20.115794-20.1158c3.6393 0 7.1985.9597 10.3179 2.7594l3.3193 1.9196.08-3.8392c.0799-4.5591 1.3997-8.9982 3.7992-12.8773 4.639-7.5185 12.7173-11.9575 21.5555-11.9575 4.679 0 9.318 1.3197 13.3172 3.7992l2.2795 1.4397.9998-2.5195c6.3587-15.9567 21.5955-26.474499 38.7922-26.754441h.72c11.197 0 21.795 4.319101 29.793 12.197441 7.999 7.8784 12.518 18.3962 12.718 29.5938 0 1.5997-.12 3.1994-.32 4.7591l-.44 3.5192 3.359-1.0798c2-.6398 4.079-.9597 6.199-.9597 11.118 0 20.156 9.0381 20.156 20.1158 0 11.1176-9.038 20.1158-20.116 20.1158-.52 0-.92-.3999-.92-.9198s.4-.9199.92-.9199c10.078 0 18.276-8.1982 18.276-18.2761s-8.198-18.2762-18.276-18.2762c-3.879 0-7.599 1.1997-10.758 3.3993-.16.1199-.32.1599-.52.1599-.08 0-.16 0-.24-.04-.32-.08-.48-.3199-.56-.4399-.08-.1199-.16-.3999-.08-.7198.96-3.3993 1.48-6.9586 1.48-10.5178v-.04c-.16-8.7582-3.079-17.0365-8.398-23.955-5.319-6.9186-12.598-11.87756-20.996-14.27706-3.679-1.03978-7.438-1.59966-11.237-1.59966-17.9967 0-34.0733 12.11752-39.0323 29.43382-.04.16-.12.28-.2.4-.2399.2799-.5598.3199-.7198.3199s-.3999-.04-.5999-.24c-4.2791-3.7592-9.7979-5.8787-15.5167-5.8787h-.2c-12.7174 0-23.1552 10.3178-23.2752 23.0352 0 2.9593.5999 5.8387 1.7197 8.5582.16.3999 0 .8798-.3599 1.1197-.16.12-.32.16-.5199.16-.32 0-.5999-.1599-.7999-.4399-3.2793-5.1589-8.9581-8.3183-15.1168-8.4382-.12 0-.2 0-.3199 0-9.918 0-18.07628 8.0783-18.27624 17.9562-.07998 4.879 1.75964 9.4781 5.11894 12.9973 3.3593 3.5193 7.9583 5.4789 12.8373 5.5589.5599 0 .9598.3999.9598.9198s-.3999.9598-.9198.9598z"/><path d="m39.5854 149.685c-4.0391 0-7.3184-3.28-7.3184-7.319v-12.797c0-4.039 3.2793-7.319 7.3184-7.319h108.7776c4.039 0 7.318 3.28 7.318 7.319v12.797c0 4.039-3.279 7.319-7.318 7.319zm0-25.595c-2.9993 0-5.4788 2.439-5.4788 5.479v12.797c0 2.999 2.4395 5.479 5.4788 5.479h108.7776c2.999 0 5.479-2.44 5.479-5.479v-12.797c0-3-2.44-5.479-5.479-5.479z"/><path d="m45.3443 136.887c-.5199 0-.9198-.4-.9198-.92 0-.519.3999-.919.9198-.919h60.7877c.52 0 .919.4.919.919 0 .52-.399.92-.919.92z"/><path d="m117.409 136.887c-.52 0-.92-.4-.92-.92 0-.519.4-.919.92-.919h8.518c.52 0 .92.4.92.919 0 .52-.4.92-.92.92z"/><path d="m39.5854 188.076c-4.0391 0-7.3184-3.279-7.3184-7.318v-12.797c0-4.04 3.2793-7.319 7.3184-7.319h108.7776c4.039 0 7.318 3.279 7.318 7.319v12.797c0 4.039-3.279 7.318-7.318 7.318zm0-25.594c-2.9993 0-5.4788 2.439-5.4788 5.479v12.797c0 2.999 2.4395 5.479 5.4788 5.479h108.7776c2.999 0 5.479-2.44 5.479-5.479v-12.797c0-3-2.44-5.479-5.479-5.479z"/><path d="m45.3443 175.279c-.5199 0-.9198-.4-.9198-.92 0-.519.3999-.919.9198-.919h60.7877c.52 0 .919.4.919.919 0 .52-.399.92-.919.92z"/><path d="m117.409 175.279c-.52 0-.92-.4-.92-.92 0-.519.4-.919.92-.919h8.518c.52 0 .92.4.92.919 0 .52-.4.92-.92.92z"/><path d="m39.5854 111.292c-4.0391 0-7.3184-3.279-7.3184-7.318v-12.7974c0-4.0391 3.2793-7.3184 7.3184-7.3184h108.7776c4.039 0 7.318 3.2793 7.318 7.3184v12.7974c0 4.039-3.279 7.318-7.318 7.318zm0-25.6342c-2.9993 0-5.4788 2.4395-5.4788 5.4788v12.7974c0 2.999 2.4395 5.479 5.4788 5.479h108.7776c2.999 0 5.479-2.44 5.479-5.479v-12.7974c0-2.9993-2.44-5.4788-5.479-5.4788z"/><path d="m44.7044 98.4951c-.5199 0-.9199-.3999-.9199-.9198s.4-.9198.9199-.9198h60.7876c.52 0 .919.3999.919.9198s-.399.9198-.919.9198z"/><path d="m115.33 98.4951c-.52 0-.92-.3999-.92-.9198s.4-.9198.92-.9198h8.518c.52 0 .92.3999.92.9198s-.4.9198-.92.9198z"/><path d="m68.3794 72.8604c-.5198 0-.9198-.3999-.9198-.9198v-26.5545l-7.9983 7.9983c-.2.2-.4799.24-.5999.24-.1599 0-.3999-.04-.6398-.28-.36-.3599-.4-.9598-.04-1.3197l9.558-9.558c.2399-.2399.5199-.2799.6398-.2799.16 0 .44.04.6399.2799l9.598 9.598c.32.3199.3199.9198-.04 1.2797-.2399.24-.5199.28-.6798.28-.16 0-.4-.04-.6399-.28l-7.9983-7.9983v26.5545c.0799.5599-.36.9598-.8799.9598z"/><path d="m119.569 72.8604c-.16 0-.44-.04-.64-.2799l-9.598-9.598c-.32-.32-.32-.9198.04-1.2797.24-.24.52-.28.68-.28s.4.04.64.28l7.998 7.9983v-26.5545c0-.5199.4-.9198.92-.9198s.92.3999.92.9198v26.5545l7.998-7.9983c.2-.2.48-.24.6-.24s.4.04.64.2799c.36.36.36.9598.04 1.3198l-9.558 9.558c-.24.2399-.52.2399-.68.2399z"/><path d="m139.445 140.046c2.208 0 3.999-1.79 3.999-3.999 0-2.208-1.791-3.999-3.999-3.999-2.209 0-4 1.791-4 3.999 0 2.209 1.791 3.999 4 3.999z"/></g></svg>

<svg width="188" height="189" viewBox="0 0 188 189" fill="none" xmlns="http://www.w3.org/2000/svg">
<path d="M39.5854 161.522H148.363C151.882 161.522 154.761 164.401 154.761 167.921V180.718C154.761 184.237 151.882 187.117 148.363 187.117H39.5854C36.0662 187.117 33.1868 184.237 33.1868 180.718V167.921C33.1868 164.401 36.0662 161.522 39.5854 161.522Z" fill="#06AAE9"/>
<path d="M139.445 178.358C141.653 178.358 143.444 176.568 143.444 174.359C143.444 172.151 141.653 170.36 139.445 170.36C137.236 170.36 135.445 172.151 135.445 174.359C135.445 176.568 137.236 178.358 139.445 178.358Z" fill="black"/>
<path d="M39.5854 84.7378H148.363C151.882 84.7378 154.761 87.6172 154.761 91.1365V103.934C154.761 107.453 151.882 110.332 148.363 110.332H39.5854C36.0662 110.332 33.1868 107.453 33.1868 103.934V91.1365C33.1868 87.6172 36.0662 84.7378 39.5854 84.7378Z" fill="#06AAE9"/>
<path d="M138.605 101.774C140.814 101.774 142.604 99.984 142.604 97.7753C142.604 95.5666 140.814 93.7761 138.605 93.7761C136.396 93.7761 134.606 95.5666 134.606 97.7753C134.606 99.984 136.396 101.774 138.605 101.774Z" fill="black"/>
<path d="M20.7494 88.8571C9.63173 88.8571 0.633606 79.819 0.633606 68.7413C0.633606 57.6636 9.67172 48.6255 20.7494 48.6255C24.3887 48.6255 27.9479 49.5852 31.0673 51.3849L34.3866 53.3045L34.4666 49.4653C34.5465 44.9062 35.8663 40.4671 38.2658 36.588C42.9048 29.0695 50.9831 24.6305 59.8213 24.6305C64.5003 24.6305 69.1393 25.9502 73.1385 28.4297L75.418 29.8694L76.4178 27.3499C82.7765 11.3932 98.0133 0.875401 115.21 0.595459C115.45 0.595459 115.69 0.595459 115.93 0.595459C127.127 0.595459 137.725 4.91456 145.723 12.7929C153.722 20.6713 158.241 31.1891 158.441 42.3867C158.441 43.9864 158.321 45.5861 158.121 47.1458L157.681 50.665L161.04 49.5852C163.04 48.9454 165.119 48.6255 167.239 48.6255C178.357 48.6255 187.395 57.6636 187.395 68.7413C187.395 79.8589 178.357 88.8571 167.279 88.8571C166.759 88.8571 166.359 88.4572 166.359 87.9373C166.359 87.4174 166.759 87.0174 167.279 87.0174C177.357 87.0174 185.555 78.8192 185.555 68.7413C185.555 58.6634 177.357 50.4651 167.279 50.4651C163.4 50.4651 159.68 51.6648 156.521 53.8644C156.361 53.9843 156.201 54.0243 156.001 54.0243C155.921 54.0243 155.841 54.0243 155.761 53.9843C155.441 53.9043 155.281 53.6644 155.201 53.5444C155.121 53.4245 155.041 53.1445 155.121 52.8246C156.081 49.4253 156.601 45.866 156.601 42.3068V42.2668C156.441 33.5086 153.522 25.2303 148.203 18.3118C142.884 11.3932 135.605 6.43424 127.207 4.03474C123.528 2.99496 119.769 2.43508 115.97 2.43508C97.9733 2.43508 81.8967 14.5526 76.9377 31.8689C76.8977 32.0289 76.8177 32.1489 76.7377 32.2689C76.4978 32.5488 76.1779 32.5888 76.0179 32.5888C75.8579 32.5888 75.618 32.5488 75.418 32.3488C71.1389 28.5896 65.6201 26.4701 59.9013 26.4701H59.7013C46.9839 26.4701 36.5461 36.7879 36.4261 49.5053C36.4261 52.4646 37.026 55.344 38.1458 58.0635C38.3058 58.4634 38.1458 58.9433 37.7859 59.1832C37.6259 59.3032 37.4659 59.3432 37.266 59.3432C36.946 59.3432 36.6661 59.1833 36.4661 58.9033C33.1868 53.7444 27.508 50.585 21.3493 50.4651C21.2293 50.4651 21.1493 50.4651 21.0294 50.4651C11.1114 50.4651 2.95312 58.5434 2.75316 68.4213C2.67318 73.3003 4.5128 77.8994 7.8721 81.4186C11.2314 84.9379 15.8304 86.8975 20.7094 86.9775C21.2693 86.9775 21.6692 87.3774 21.6692 87.8973C21.6692 88.4172 21.2693 88.8571 20.7494 88.8571Z" fill="black"/>
<path d="M39.5854 149.685C35.5463 149.685 32.267 146.405 32.267 142.366V129.569C32.267 125.53 35.5463 122.25 39.5854 122.25H148.363C152.402 122.25 155.681 125.53 155.681 129.569V142.366C155.681 146.405 152.402 149.685 148.363 149.685H39.5854ZM39.5854 124.09C36.5861 124.09 34.1066 126.529 34.1066 129.569V142.366C34.1066 145.365 36.5461 147.845 39.5854 147.845H148.363C151.362 147.845 153.842 145.405 153.842 142.366V129.569C153.842 126.569 151.402 124.09 148.363 124.09H39.5854Z" fill="black"/>
<path d="M45.3443 136.887C44.8244 136.887 44.4245 136.487 44.4245 135.967C44.4245 135.448 44.8244 135.048 45.3443 135.048H106.132C106.652 135.048 107.051 135.448 107.051 135.967C107.051 136.487 106.652 136.887 106.132 136.887H45.3443Z" fill="black"/>
<path d="M117.409 136.887C116.889 136.887 116.489 136.487 116.489 135.967C116.489 135.448 116.889 135.048 117.409 135.048H125.927C126.447 135.048 126.847 135.448 126.847 135.967C126.847 136.487 126.447 136.887 125.927 136.887H117.409Z" fill="black"/>
<path d="M39.5854 188.076C35.5463 188.076 32.267 184.797 32.267 180.758V167.961C32.267 163.921 35.5463 160.642 39.5854 160.642H148.363C152.402 160.642 155.681 163.921 155.681 167.961V180.758C155.681 184.797 152.402 188.076 148.363 188.076H39.5854ZM39.5854 162.482C36.5861 162.482 34.1066 164.921 34.1066 167.961V180.758C34.1066 183.757 36.5461 186.237 39.5854 186.237H148.363C151.362 186.237 153.842 183.797 153.842 180.758V167.961C153.842 164.961 151.402 162.482 148.363 162.482H39.5854Z" fill="black"/>
<path d="M45.3443 175.279C44.8244 175.279 44.4245 174.879 44.4245 174.359C44.4245 173.84 44.8244 173.44 45.3443 173.44H106.132C106.652 173.44 107.051 173.84 107.051 174.359C107.051 174.879 106.652 175.279 106.132 175.279H45.3443Z" fill="black"/>
<path d="M117.409 175.279C116.889 175.279 116.489 174.879 116.489 174.359C116.489 173.84 116.889 173.44 117.409 173.44H125.927C126.447 173.44 126.847 173.84 126.847 174.359C126.847 174.879 126.447 175.279 125.927 175.279H117.409Z" fill="black"/>
<path d="M39.5854 111.292C35.5463 111.292 32.267 108.013 32.267 103.974V91.1766C32.267 87.1375 35.5463 83.8582 39.5854 83.8582H148.363C152.402 83.8582 155.681 87.1375 155.681 91.1766V103.974C155.681 108.013 152.402 111.292 148.363 111.292H39.5854ZM39.5854 85.6578C36.5861 85.6578 34.1066 88.0973 34.1066 91.1366V103.934C34.1066 106.933 36.5461 109.413 39.5854 109.413H148.363C151.362 109.413 153.842 106.973 153.842 103.934V91.1366C153.842 88.1373 151.402 85.6578 148.363 85.6578H39.5854Z" fill="black"/>
<path d="M44.7044 98.4951C44.1845 98.4951 43.7845 98.0952 43.7845 97.5753C43.7845 97.0554 44.1845 96.6555 44.7044 96.6555H105.492C106.012 96.6555 106.411 97.0554 106.411 97.5753C106.411 98.0952 106.012 98.4951 105.492 98.4951H44.7044Z" fill="black"/>
<path d="M115.33 98.4951C114.81 98.4951 114.41 98.0952 114.41 97.5753C114.41 97.0554 114.81 96.6555 115.33 96.6555H123.848C124.368 96.6555 124.768 97.0554 124.768 97.5753C124.768 98.0952 124.368 98.4951 123.848 98.4951H115.33Z" fill="black"/>
<path d="M68.3794 72.8604C67.8596 72.8604 67.4596 72.4605 67.4596 71.9406V45.3861L59.4613 53.3844C59.2613 53.5844 58.9814 53.6244 58.8614 53.6244C58.7015 53.6244 58.4615 53.5844 58.2216 53.3444C57.8616 52.9845 57.8216 52.3846 58.1816 52.0247L67.7396 42.4667C67.9795 42.2268 68.2595 42.1868 68.3794 42.1868C68.5394 42.1868 68.8194 42.2268 69.0193 42.4667L78.6173 52.0647C78.9373 52.3846 78.9372 52.9845 78.5773 53.3444C78.3374 53.5844 78.0574 53.6244 77.8975 53.6244C77.7375 53.6244 77.4975 53.5844 77.2576 53.3444L69.2593 45.3461V71.9006C69.3392 72.4605 68.8993 72.8604 68.3794 72.8604Z" fill="black"/>
<path d="M119.569 72.8604C119.409 72.8604 119.129 72.8204 118.929 72.5805L109.331 62.9825C109.011 62.6625 109.011 62.0627 109.371 61.7028C109.611 61.4628 109.891 61.4228 110.051 61.4228C110.211 61.4228 110.451 61.4628 110.691 61.7028L118.689 69.7011V43.1466C118.689 42.6267 119.089 42.2268 119.609 42.2268C120.129 42.2268 120.529 42.6267 120.529 43.1466V69.7011L128.527 61.7028C128.727 61.5028 129.007 61.4628 129.127 61.4628C129.247 61.4628 129.527 61.5028 129.767 61.7427C130.127 62.1027 130.127 62.7025 129.807 63.0625L120.249 72.6205C120.009 72.8604 119.729 72.8604 119.569 72.8604Z" fill="black"/>
<path d="M139.445 140.046C141.653 140.046 143.444 138.256 143.444 136.047C143.444 133.839 141.653 132.048 139.445 132.048C137.236 132.048 135.445 133.839 135.445 136.047C135.445 138.256 137.236 140.046 139.445 140.046Z" fill="black"/>
</svg>
